flaticon/emoticons/vampire-1.svg

<svg xmlns="http://www.w3.org/2000/svg" width="32" height="32" viewBox="0 0 24 24">
    <path d="M 12 0 C 5.382812 0 0 5.382812 0 12 C 0 18.617188 5.382812 24 12 24 C 18.617188 24 24 18.617188 24 12 C 24 5.382812 18.617188 0 12 0 Z M 12 22.910156 C 5.984375 22.910156 1.089844 18.015625 1.089844 12 C 1.089844 5.984375 5.984375 1.089844 12 1.089844 C 18.015625 1.089844 22.910156 5.984375 22.910156 12 C 22.910156 18.015625 18.015625 22.910156 12 22.910156 Z M 12 22.910156"/>
    <path d="M17.449219 16.890625C17.449219 16.824219 17.4375 16.761719 17.410156 16.699219 17.410156 16.695312 17.40625 16.691406 17.40625 16.6875 17.390625 16.65625 17.375 16.621094 17.351562 16.589844 17.339844 16.574219 17.320312 16.558594 17.308594 16.542969 17.300781 16.535156 17.292969 16.523438 17.28125 16.515625 17.238281 16.472656 17.1875 16.441406 17.132812 16.414062 17.121094 16.410156 17.113281 16.40625 17.101562 16.402344 17.039062 16.378906 16.976562 16.363281 16.910156 16.363281L7.089844 16.363281C7.023438 16.363281 6.960938 16.378906 6.898438 16.402344 6.886719 16.40625 6.878906 16.410156 6.867188 16.414062 6.8125 16.441406 6.761719 16.472656 6.71875 16.515625 6.707031 16.523438 6.699219 16.535156 6.691406 16.542969 6.679688 16.558594 6.660156 16.570312 6.648438 16.589844 6.625 16.621094 6.609375 16.652344 6.59375 16.6875 6.59375 16.691406 6.589844 16.695312 6.589844 16.699219 6.5625 16.757812 6.550781 16.824219 6.550781 16.886719 6.550781 16.894531 6.546875 16.902344 6.546875 16.910156 6.546875 16.914062 6.546875 16.917969 6.546875 16.921875 6.550781 16.976562 6.554688 17.03125 6.574219 17.082031L7.664062 20.355469C7.738281 20.578125 7.945312 20.726562 8.183594 20.726562 8.417969 20.726562 8.625 20.578125 8.699219 20.355469L9.664062 17.453125 14.335938 17.453125 15.300781 20.355469C15.375 20.578125 15.582031 20.726562 15.816406 20.726562 16.054688 20.726562 16.261719 20.578125 16.335938 20.355469L17.425781 17.082031C17.445312 17.03125 17.449219 16.976562 17.453125 16.921875 17.453125 16.917969 17.453125 16.914062 17.453125 16.910156 17.453125 16.902344 17.449219 16.894531 17.449219 16.890625zM8.183594 18.457031L7.847656 17.453125 8.515625 17.453125zM15.816406 18.457031L15.484375 17.453125 16.152344 17.453125zM5.675781 7.484375C6.085938 7.894531 6.605469 8.097656 7.128906 8.097656 7.644531 8.097656 8.160156 7.898438 8.558594 7.496094 8.664062 7.390625 8.71875 7.25 8.71875 7.109375 8.71875 6.972656 8.664062 6.832031 8.558594 6.726562 8.34375 6.511719 8 6.511719 7.789062 6.726562 7.742188 6.769531 7.695312 6.808594 7.644531 6.84375 7.550781 6.90625 7.449219 6.949219 7.34375 6.972656 7.332031 6.976562 7.320312 6.980469 7.308594 6.984375 7.296875 6.988281 7.28125 6.984375 7.269531 6.988281 7.222656 6.996094 7.171875 7 7.121094 6.996094 6.867188 6.996094 6.628906 6.894531 6.449219 6.714844 6.234375 6.5 5.890625 6.5 5.675781 6.714844 5.570312 6.820312 5.515625 6.960938 5.515625 7.097656 5.519531 7.238281 5.570312 7.378906 5.675781 7.484375zM16.953125 7.640625C17.472656 7.640625 17.984375 7.441406 18.386719 7.039062 18.597656 6.824219 18.597656 6.480469 18.386719 6.269531 18.171875 6.054688 17.828125 6.054688 17.613281 6.269531 17.570312 6.3125 17.519531 6.351562 17.46875 6.386719 17.320312 6.484375 17.140625 6.539062 16.957031 6.539062 16.953125 6.539062 16.949219 6.539062 16.949219 6.539062 16.695312 6.539062 16.457031 6.4375 16.277344 6.257812 16.0625 6.042969 15.71875 6.042969 15.503906 6.257812 15.292969 6.46875 15.292969 6.8125 15.503906 7.027344 15.910156 7.4375 16.433594 7.640625 16.953125 7.640625zM8.183594 10.089844C8.183594 9.984375 8.167969 9.878906 8.148438 9.777344 6.949219 9.957031 5.648438 9.6875 4.730469 8.972656 4.503906 9.289062 4.363281 9.671875 4.363281 10.089844 4.363281 11.144531 5.21875 12 6.273438 12 7.328125 12 8.183594 11.144531 8.183594 10.089844zM15.851562 9.777344C15.832031 9.878906 15.816406 9.984375 15.816406 10.089844 15.816406 11.144531 16.671875 12 17.726562 12 18.78125 12 19.636719 11.144531 19.636719 10.089844 19.636719 9.671875 19.496094 9.289062 19.269531 8.972656 18.351562 9.6875 17.050781 9.957031 15.851562 9.777344zM15.851562 9.777344"/>
</svg>

<svg xmlns="http://www.w3.org/2000/svg" width="32" height="32" viewBox="0 0 24 24">
    <path d="M12 0C5.383 0 0 5.383 0 12s5.383 12 12 12 12-5.383 12-12S18.617 0 12 0zm0 22.91C5.984 22.91 1.09 18.016 1.09 12S5.984 1.09 12 1.09 22.91 5.984 22.91 12 18.016 22.91 12 22.91zm0 0"/>
    <path d="M17.45 16.89a.467.467 0 0 0-.04-.19c0-.005-.004-.009-.004-.012-.015-.032-.031-.067-.054-.098-.012-.016-.032-.031-.043-.047-.008-.008-.016-.02-.028-.027a.556.556 0 0 0-.148-.102l-.031-.012a.54.54 0 0 0-.192-.039H7.09a.54.54 0 0 0-.192.04l-.03.011a.556.556 0 0 0-.15.102c-.011.007-.019.02-.027.027-.011.016-.03.027-.043.047a.48.48 0 0 0-.054.098c0 .003-.004.007-.004.011a.449.449 0 0 0-.04.188c0 .008-.003.015-.003.023v.012a.55.55 0 0 0 .027.16l1.09 3.273a.543.543 0 0 0 .52.372.542.542 0 0 0 .515-.372l.965-2.902h4.672l.965 2.902a.542.542 0 0 0 .515.372.543.543 0 0 0 .52-.372l1.09-3.273a.55.55 0 0 0 .027-.16v-.012c0-.008-.004-.015-.004-.02zm-9.266 1.567l-.336-1.004h.668zm7.632 0l-.332-1.004h.668zm0 0M5.676 7.484c.41.41.93.614 1.453.614.516 0 1.031-.2 1.43-.602a.545.545 0 0 0-.77-.77 1.355 1.355 0 0 1-.144.118.888.888 0 0 1-.301.129l-.035.011c-.012.004-.028 0-.04.004-.046.008-.097.012-.148.008a.946.946 0 0 1-.672-.281.545.545 0 1 0-.773.77zm0 0M16.953 7.64c.52 0 1.031-.199 1.434-.6a.545.545 0 1 0-.773-.77.936.936 0 0 1-.656.27h-.009a.946.946 0 0 1-.672-.282.545.545 0 1 0-.773.77c.406.41.93.613 1.45.613zm0 0M8.184 10.09c0-.106-.016-.211-.036-.313-1.199.18-2.5-.09-3.418-.804-.226.316-.367.699-.367 1.117a1.91 1.91 0 0 0 3.82 0zm0 0M15.852 9.777c-.02.102-.036.207-.036.313a1.91 1.91 0 0 0 3.82 0c0-.418-.14-.8-.366-1.117-.918.714-2.22.984-3.418.804zm0 0"/>
</svg>
